public/assets/images/icons/green/folder-group-empty.svg

<svg width="16" height="16" xmlns="http://www.w3.org/2000/svg" viewBox="0 0 54 54"><path d="M18.44 26.65A3.44 3.44 0 1 0 15 23.21a3.43 3.43 0 0 0 3.44 3.44ZM20 28.28h-3.13a3.32 3.32 0 0 0-3.31 3.31v4.31h9.76v-4.31A3.32 3.32 0 0 0 20 28.28Zm15.56 2.44a3.44 3.44 0 1 0-3.44-3.44 3.44 3.44 0 0 0 3.44 3.44Zm1.56 1.63H34a3.31 3.31 0 0 0-3.3 3.31V40h9.76v-4.34a3.33 3.33 0 0 0-3.34-3.31Zm-11.07-9.51a3.44 3.44 0 1 0-3.44-3.43 3.43 3.43 0 0 0 3.44 3.43Z" fill="#00962d"/><path d="M30.93 32.1v-4.31a3.32 3.32 0 0 0-3.32-3.31h-3.14a3.29 3.29 0 0 0-3.28 3.18 4.12 4.12 0 0 1 2.95 3.93v.51Z" fill="#00962d"/><path d="M28 11V9.94a3 3 0 0 0-3-3H14a3 3 0 0 0-3 3V11H3v35h48V11Zm20 32H6V13.94h42Z" fill="#00962d"/></svg>

<svg width="16" height="16" xmlns="http://www.w3.org/2000/svg" viewBox="0 0 54 54"><defs><style>.a{fill:#00962d;}</style></defs><path class="a" d="M18.44,26.65A3.44,3.44,0,1,0,15,23.21,3.43,3.43,0,0,0,18.44,26.65Z"/><path class="a" d="M20,28.28H16.87a3.32,3.32,0,0,0-3.31,3.31V35.9h9.76V31.59A3.32,3.32,0,0,0,20,28.28Z"/><path class="a" d="M35.56,30.72a3.44,3.44,0,1,0-3.44-3.44A3.44,3.44,0,0,0,35.56,30.72Z"/><path class="a" d="M37.12,32.35H34a3.31,3.31,0,0,0-3.3,3.31V40h9.76V35.66A3.33,3.33,0,0,0,37.12,32.35Z"/><path class="a" d="M26.05,22.84a3.44,3.44,0,1,0-3.44-3.43A3.43,3.43,0,0,0,26.05,22.84Z"/><path class="a" d="M30.93,32.1V27.79a3.32,3.32,0,0,0-3.32-3.31H24.47a3.29,3.29,0,0,0-3.28,3.18,4.12,4.12,0,0,1,2.95,3.93v.51Z"/><path class="a" d="M28,11V9.94a3,3,0,0,0-3-3H14a3,3,0,0,0-3,3V11H3V46H51V11ZM48,43H6V13.94H48Z"/></svg>
